packages/kaspersky-hexa-ui-icons/src/iconsSVGs/64x42/FlagCas.svg

<svg xmlns="http://www.w3.org/2000/svg" width="64" height="42" fill="none" viewBox="0 0 64 42"><g clip-path="url(#a)"><rect width="64" height="42" fill="#fff" rx="5"/><path fill="#19bfbf" d="M0 0h64v42H0z"/><path fill="#fff" fill-rule="evenodd" d="M14.113 17.574a.7.7 0 0 0 .3131.9391l4.3478 2.1739a.7.7 0 0 1 .3131.9392l-.7739 1.5478a.7.7 0 0 1-.9392.313l-2.0261-1.013a.7.7 0 0 0-.313-.0739H11.7a.7.7 0 0 0-.7.7v1.5955c0 .3013.1928.5688.4786.664l2.6469.8823c.4937.1646.6416.7911.2736 1.1591l-.3941.3941a.7.7 0 0 0-.205.4949v.9965c0 .0752.0121.15.0359.2214l1.2724 3.8171a.7.7 0 0 0 .351.4048l2.0894 1.0447a.7.7 0 0 0 .8081-.1312L20.8 32.2001l.7133-.7133c.3378-.3378.2454-.9074-.182-1.121l-1.5443-.7722a.7.7 0 0 1-.387-.6261v-.0709c0-.4554.428-.7895.8698-.6791l4.2 1.05a.7.7 0 0 1 .5302.6791v2.0416c0 .1382.0409.2733.1176.3882l2.4746 3.712a.7.7 0 0 0 .5824.3117h.5515a.7.7 0 0 0 .6499-.44l2.0451-5.1127c.2243-.5608 1.0059-.5933 1.276-.0531l.6521 1.3042a.7.7 0 0 0 .1311.1819l2.6394 2.6394a.7.7 0 0 0 .1819.1311l1.6854.8427c.4654.2327 1.013-.1058 1.013-.6261V33.89a.7.7 0 0 0-.205-.4949l-.7-.7a.7.7 0 0 1 0-.99l.7-.7a.7.7 0 0 1 .495-.205h2.3448a.7.7 0 0 0 .313-.0739l2.2653-1.1326a.7.7 0 0 0 .3869-.6261V26.89a.7.7 0 0 0-.205-.4949l-.7-.7a.7.7 0 0 1 0-.99l1.6183-1.6183c.3378-.3378.9074-.2454 1.121.182l.7927 1.5852a.626.626 0 0 0 .56.3461c.4654 0 .7681-.4898.56-.9061l-.6339-1.2678a.7.7 0 0 1 .313-.9392l1.5478-.7739a.7.7 0 0 0 .3131-.9391l-.9573-1.9146a.7.7 0 0 0-.4048-.351l-2.8504-.9501c-.4937-.1646-.6416-.7911-.2736-1.1591l1.7941-1.7941a.7.7 0 0 1 .495-.205h3.4774a.7.7 0 0 0 .6261-.387l.7478-1.4957c.2205-.4409-.0717-.9655-.5627-1.0102L39.0884 9.9354c-.5911-.0537-.8513-.7724-.4316-1.192l.1382-.1383a.7.7 0 0 0 .205-.495v-1.81a.7.7 0 0 0-.7-.7h-6.01a.7.7 0 0 0-.495.205L27.9371 9.663a.7.7 0 0 1-.3252.1841L22.2 11.2001l-5.3488 1.3372a.7.7 0 0 1-.4828-.053l-1.0569-.5284c-.5578-.2789-1.1743.2558-.9771.8474l.7739 2.3217a.7.7 0 0 1-.038.5344zM32.0001 36.4c.7732 0 1.4-.6268 1.4-1.4s-.6268-1.4-1.4-1.4-1.4.6268-1.4 1.4.6268 1.4 1.4 1.4m-7-15.3997c0 .7732-.6268 1.4-1.4 1.4s-1.4-.6268-1.4-1.4.6268-1.4 1.4-1.4 1.4.6268 1.4 1.4M50.1999 26.6V28l-1.605 1.605c-.441.441-.1287 1.195.4949 1.195h.6775a.7.7 0 0 0 .6261-.387L51.5999 28zm0 0 .7739-.3869c.5047-.2524.3251-1.0131-.2392-1.0131a.5347.5347 0 0 0-.5347.5348z" clip-rule="evenodd"/></g><defs><clipPath id="a"><rect width="64" height="42" fill="#fff" rx="5"/></clipPath></defs></svg>

<svg width="64" height="42" viewBox="0 0 64 42" fill="none" xmlns="http://www.w3.org/2000/svg">
<g clip-path="url(#clip0_37941_2390)">
<rect width="64" height="42" rx="5" fill="white"/>
<rect width="64" height="42" fill="#19BFBF"/>
<path fill-rule="evenodd" clip-rule="evenodd" d="M14.113 17.574C13.9402 17.9198 14.0803 18.3403 14.4261 18.5131L18.7739 20.687C19.1197 20.8599 19.2598 21.2804 19.087 21.6262L18.3131 23.174C18.1402 23.5198 17.7197 23.6599 17.3739 23.487L15.3478 22.474C15.2506 22.4254 15.1434 22.4001 15.0348 22.4001H11.7C11.3134 22.4001 11 22.7135 11 23.1001V24.6956C11 24.9969 11.1928 25.2644 11.4786 25.3596L14.1255 26.2419C14.6192 26.4065 14.7671 27.033 14.3991 27.401L14.005 27.7951C13.8737 27.9263 13.8 28.1044 13.8 28.29V29.2865C13.8 29.3617 13.8121 29.4365 13.8359 29.5079L15.1083 33.325C15.167 33.5012 15.2933 33.6467 15.4593 33.7298L17.5487 34.7745C17.8182 34.9092 18.1437 34.8564 18.3568 34.6433L20.8 32.2001L21.5133 31.4868C21.8511 31.149 21.7587 30.5794 21.3313 30.3658L19.787 29.5936C19.5498 29.475 19.4 29.2326 19.4 28.9675V28.8966C19.4 28.4412 19.828 28.1071 20.2698 28.2175L24.4698 29.2675C24.7814 29.3454 25 29.6254 25 29.9466V31.9882C25 32.1264 25.0409 32.2615 25.1176 32.3764L27.5922 36.0884C27.722 36.2831 27.9406 36.4001 28.1746 36.4001H28.7261C29.0123 36.4001 29.2697 36.2258 29.376 35.9601L31.4211 30.8474C31.6454 30.2866 32.427 30.2541 32.6971 30.7943L33.3492 32.0985C33.3828 32.1658 33.4271 32.2272 33.4803 32.2804L36.1197 34.9198C36.1729 34.973 36.2343 35.0173 36.3016 35.0509L37.987 35.8936C38.4524 36.1263 39 35.7878 39 35.2675V33.89C39 33.7044 38.9263 33.5263 38.795 33.3951L38.095 32.6951C37.8216 32.4217 37.8216 31.9785 38.095 31.7051L38.795 31.0051C38.9263 30.8738 39.1043 30.8001 39.29 30.8001H41.6348C41.7434 30.8001 41.8506 30.7748 41.9478 30.7262L44.2131 29.5936C44.4502 29.475 44.6 29.2326 44.6 28.9675V26.89C44.6 26.7044 44.5263 26.5264 44.395 26.3951L43.695 25.6951C43.4216 25.4217 43.4216 24.9785 43.695 24.7051L45.3133 23.0868C45.6511 22.749 46.2207 22.8414 46.4343 23.2688L47.227 24.854C47.333 25.0661 47.5498 25.2001 47.787 25.2001C48.2524 25.2001 48.5551 24.7103 48.347 24.294L47.7131 23.0262C47.5402 22.6804 47.6803 22.2599 48.0261 22.087L49.5739 21.3131C49.9197 21.1403 50.0598 20.7198 49.887 20.374L48.9297 18.4594C48.8466 18.2934 48.7011 18.1671 48.5249 18.1084L45.6745 17.1583C45.1808 16.9937 45.0329 16.3672 45.4009 15.9992L47.195 14.2051C47.3263 14.0738 47.5043 14.0001 47.69 14.0001H51.1674C51.4325 14.0001 51.6749 13.8503 51.7935 13.6131L52.5413 12.1174C52.7618 11.6765 52.4696 11.1519 51.9786 11.1072L39.0884 9.93541C38.4973 9.88167 38.2371 9.16296 38.6568 8.74331L38.795 8.60512C38.9263 8.47385 39 8.2958 39 8.11015V6.3001C39 5.9135 38.6866 5.6001 38.3 5.6001H32.29C32.1043 5.6001 31.9263 5.67385 31.795 5.80512L27.9371 9.663C27.8474 9.75271 27.735 9.81635 27.6119 9.84712L22.2 11.2001L16.8512 12.5373C16.6891 12.5778 16.5178 12.559 16.3684 12.4843L15.3115 11.9559C14.7537 11.677 14.1372 12.2117 14.3344 12.8033L15.1083 15.125C15.167 15.3012 15.1534 15.4934 15.0703 15.6594L14.113 17.574ZM32.0001 36.4C32.7733 36.4 33.4001 35.7732 33.4001 35C33.4001 34.2268 32.7733 33.6 32.0001 33.6C31.2269 33.6 30.6001 34.2268 30.6001 35C30.6001 35.7732 31.2269 36.4 32.0001 36.4ZM25.0001 21.0003C25.0001 21.7735 24.3733 22.4003 23.6001 22.4003C22.8269 22.4003 22.2001 21.7735 22.2001 21.0003C22.2001 20.2271 22.8269 19.6003 23.6001 19.6003C24.3733 19.6003 25.0001 20.2271 25.0001 21.0003ZM50.1999 26.6V28L48.5949 29.605C48.1539 30.046 48.4662 30.8 49.0898 30.8H49.7673C50.0324 30.8 50.2748 30.6502 50.3934 30.413L51.5999 28L50.1999 26.6ZM50.1999 26.6L50.9738 26.2131C51.4785 25.9607 51.2989 25.2 50.7346 25.2C50.4393 25.2 50.1999 25.4394 50.1999 25.7348V26.6Z" fill="white"/>
</g>
<defs>
<clipPath id="clip0_37941_2390">
<rect width="64" height="42" rx="5" fill="white"/>
</clipPath>
</defs>
</svg>
